X:97
T:L'adi?u dou tambourinaire
T:(Marcho fun?bro)
O:France
A:Provence
C:J. Ginas
R:Marche
Z:Transcrit par Michel Bellon 2004-02-22
S:Carnet du tambourinaire Ginas (1924)
M:2/4
L:1/8
K:Gm
V:Galoubet
d2 d>d | e2>d2 | ABcd | c2B2 | A2A>A | d2>G2 | ABcd | G4 |d2e>f | d2>c2 | BABc | d2d2 | g2g>g | ^f3B | cedd |
G3d | cBcd | B3d | fedc | e2d2 | G2G>G | B4 | G2G>G | d2>>e2 | fedc | d2>e2 | dcBA | G4 | F2>G2 | FGFB | 
d4- | d f ed | c2>=B2 | cd ef | g4 | f4 | d2>f2 | edcB | A>G A>B | A2 d>c | B2 e>d | c2 c>B | A2 B>A | G4 |]
<end>
<start>
